!!!!SEGMENT: Gom2013-Fuit_homo_missus_a_deo
!!!id: Gom2013
!!!AGN: Motet
!!!voices: 4
!!!COM: Nicolas Gombert
!!!OTL: Fuit homo missus a deo
**kern	**kern	**kern	**kern
*part4	*part3	*part2	*part1
*staff4	*staff3	*staff2	*staff1
*I"Bassus	*I"Tenor	*I"Altus	*I"Superius
*I'B.	*I'T.	*I'A.	*I'S.
*clefF4	*clefGv2	*clefGv2	*clefG2
*k[b-]	*k[b-]	*k[b-]	*k[b-]
*M2/1	*M2/1	*M2/1	*M2/1
*met(C|)	*met(C|)	*met(C|)	*met(C|)
=1	=1	=1	=1
!!section: Prima pars: Fuit homo missus a deo
!!!OMD: Prima pars: Fuit homo missus a deo
0G	0r	0r	0r
=2	=2	=2	=2
1F	0r	0r	0r
[1G	.	.	.
=3	=3	=3	=3
2G]	0d	0r	0r
2F	.	.	.
1B-y	.	.	.
=4	=4	=4	=4
1A	1c	0r	0r
2r	[1d	.	.
2F	.	.	.
=5	=5	=5	=5
2G	2d]	0r	0r
1A	2c	.	.
.	1f	.	.
2B-y	.	.	.
=6	=6	=6	=6
2G	1e	0r	0r
1A	.	.	.
.	1c	.	.
[2F	.	.	.
=7	=7	=7	=7
2F]	2d	0r	0r
2G	1e	.	.
1A	.	.	.
.	2f	.	.
=8	=8	=8	=8
2B-y	2d	0r	0r
2G	2.e	.	.
2.A	.	.	.
.	4d	.	.
.	4c	.	.
4G	4B-y	.	.
=9	=9	=9	=9
4F	2A	0d	0r
4E	.	.	.
1G	1B-y	.	.
[2F	[2A	.	.
=10	=10	=10	=10
2F]	2A]	1c	0r
2E	2G	.	.
2F	2A	[1d	.
[2G	[2B-y	.	.
=11	=11	=11	=11
4G]	4B-]	2d]	0r
4F	4A	.	.
2E	1c	2c	.
1D	.	1f	.
.	2B-y	.	.
=12	=12	=12	=12
1C	2c	1e	0r
.	2G	.	.
[1F	[1A	2r	.
.	.	2c	.
=13	=13	=13	=13
2F]	2A]	2d	0r
2G	2B-y	1e	.
2.A	4c	.	.
.	4d	.	.
.	[2c	2f	.
4F	.	.	.
=14	=14	=14	=14
1G	2c]	2d	0g
.	2B-y	2.e	.
1C	1e-i	.	.
.	.	4d	.
.	.	4c	.
.	.	4B-y	.
=15	=15	=15	=15
1D	1d	1A	1f
1GG	1r	2r	[1g
.	.	2B-y	.
=16	=16	=16	=16
0r	0r	2c	2g]
.	.	1d	2f
.	.	.	1b-y
.	.	2e	.
=17	=17	=17	=17
0r	0r	2c	1a
.	.	1d	.
.	.	.	1f
.	.	[2B-y	.
=18	=18	=18	=18
0r	0r	2B-]	2g
.	.	2c	1a
.	.	1d	.
.	.	.	2b-y
=19	=19	=19	=19
0r	1r	2e	2g
.	.	2c	2.a
.	1A	2.d	.
.	.	.	4g
.	.	.	4f
.	.	4c	4e
=20	=20	=20	=20
0r	2B-y	2B-y	2d
.	1A	2.c	2f
.	.	.	2e
.	.	4A	.
.	2B-y	2f	2d
=21	=21	=21	=21
1r	1G	2e	2.g
.	.	1d	.
.	.	.	4f
1AA	1A	.	1e
.	.	2c#i	.
=22	=22	=22	=22
1BB-y	0r	[0d	0d
2GG	.	.	.
[2G	.	.	.
=23	=23	=23	=23
2G]	1A	0d]	0r
2F	.	.	.
2.G	1B-y	.	.
4F	.	.	.
=24	=24	=24	=24
2E	2c	0r	1r
2D	1d	.	.
1A	.	.	1e
.	2c#i	.	.
=25	=25	=25	=25
1D	1.d	1A	1f
2G	.	2B-y	2g
[2F	[2A	2c	[2a
=26	=26	=26	=26
4F]	2A]	1d	2a]
4D	.	.	.
2G	2B-y	.	2g
2F	2c	1f	[1a
2D	[2d	.	.
=27	=27	=27	=27
1A	2d]	1e	1a]
.	2c	.	.
1D	2.f	2d	2.a
.	.	[2f	.
.	4e	.	4g
=28	=28	=28	=28
2r	4d	4f]	2a
.	4c	4e	.
2D	4B-y	1d	1b-y
.	4A	.	.
1E-i	1G	.	.
.	.	2c	4a
.	.	.	4g
=29	=29	=29	=29
2D	1B-y	1d	2f
2BB-y	.	.	1g
2C	1A	1r	.
2D	.	.	2f#i
=30	=30	=30	=30
2E-i	2G	1r	[0g
2C	1c	.	.
1G	.	1d	.
.	2BnXi	.	.
=31	=31	=31	=31
1C	1c	1e	0g]
1G	1r	2d	.
.	.	2B-y	.
=32	=32	=32	=32
2.F	2r	2c	1r
.	2A	2d	.
4E	.	.	.
1C	[1c	2e	2r
.	.	2c	[2e
=33	=33	=33	=33
0r	2c]	2.g	2e]
.	2B-y	.	1g
.	.	4f	.
.	2c	2e	.
.	2d	[2d	2f
=34	=34	=34	=34
0r	2B-y	4d]	2g
.	.	4c	.
.	2c	2A	2a
.	1d	1B-y	2f
.	.	.	2g
=35	=35	=35	=35
2r	0c	1A	1a
2AA	.	.	.
[1C	.	2r	2.g
.	.	2E	.
.	.	.	4f
=36	=36	=36	=36
2C]	0r	1.G	2e
2BB-y	.	.	2d
2C	.	.	2e
2D	.	2F	[2d
=37	=37	=37	=37
2BB-y	1r	2G	2d]
2C	.	2A	2c
1D	1A	2F	1f
.	.	2G	.
=38	=38	=38	=38
1AA	1.c	1A	2e
.	.	.	2c
1r	.	2G	1d
.	2B-y	[2g	.
=39	=39	=39	=39
1r	2c	2g]	2r
.	2d	2f	1dd
2r	2B-y	2d	.
[2A	2c	2e	2cc
=40	=40	=40	=40
2A]	1d	2f	2a
2G	.	2g	2b-y
2E	2r	2c	2cc
2F	[2d	2f	2dd
=41	=41	=41	=41
2G	2d]	1e	2g
2A	2c	.	1cc
1D	2A	1d	.
.	2B-y	.	2b-y
=42	=42	=42	=42
1r	2c	2r	2.a
.	2d	1d	.
.	.	.	4f
2r	2G	.	2g
[2A	[2c	2e	2a
=43	=43	=43	=43
2A]	2c]	2f	1d
2G	2B-y	1g	.
2E	2c	.	1rg
2F	[2d	2f	.
=44	=44	=44	=44
2G	2d]	1e	1.a
2A	2c#i	.	.
1D	[1d	1f	.
.	.	.	2f
=45	=45	=45	=45
0r	1d]	2r	2b-y
.	.	1d	1a
.	1r	.	.
.	.	2B-y	[2g
=46	=46	=46	=46
0r	0r	4e-i	4g]
.	.	4d	4f
.	.	4d	4f
.	.	8cL	8eL
.	.	8B-yJ	8dJ
.	.	2c	2e
.	.	[2d	2d
=47	=47	=47	=47
1r	1.A	2d]	1e
.	.	2c	.
[1D	.	[1d	[1f
.	2F	.	.
=48	=48	=48	=48
2D]	2.B-y	1d]	2f]
2BB-y	.	.	2f
.	4A	.	.
2E-i	2G	2c	2g
[2D	2A	[2d	[2f
=49	=49	=49	=49
2D]	2B-y	4d]	4f]
.	.	4f	4d
2C	2c	2e	1g
1D	1A	1d	.
.	.	.	2f#i
=50	=50	=50	=50
0GG	0G	1r	1g
.	.	1d	1r
=51	=51	=51	=51
0r	0r	1.d	1a
.	.	.	[1a
.	.	2c	.
=52	=52	=52	=52
0r	0r	2d	2a]
.	.	2e	2g
.	.	[1f	2a
.	.	.	2b-y
=53	=53	=53	=53
0r	1A	2f]	1.cc
.	.	2e	.
.	2A	2f	.
.	2G	[2g	2b-y
=54	=54	=54	=54
0r	2A	2g]	1a
.	2B-y	1f	.
.	1c	.	2.g
.	.	2e	.
.	.	.	4a
=55	=55	=55	=55
1D	1r	1f	2b-y
.	.	.	2.a
[1D	[1A	2r	.
.	.	.	4g
.	.	2d	4f
.	.	.	4e
=56	=56	=56	=56
2D]	2A]	2f	2d
2C	2c	2e	1a
2D	2B-y	2f	.
2E	[2c	2e	2g
=57	=57	=57	=57
1F	2c]	1c	1a
.	2A	.	.
2r	2B-y	1d	1r
[2D	2A	.	.
=58	=58	=58	=58
2D]	1d	0r	1f
2F	.	.	.
2E	2.c	.	2g
[2F	.	.	[2a
.	4B-y	.	.
=59	=59	=59	=59
2F]	4c	0r	2a]
.	4A	.	.
2D	1d	.	2f
2.E	.	.	2.g
.	2c	.	.
4C	.	.	4a
=60	=60	=60	=60
1G	2.d	1B-y	1b-y
.	4e	.	.
1F	1f	1c	2a
.	.	.	[2f
=61	=61	=61	=61
1BB-y	1r	2d	2f]
.	.	2B-y	2g
1r	1F	2.c	1a
.	.	4d	.
=62	=62	=62	=62
0r	1G	2e-i	2g
.	.	1d	2f
.	1A	.	2e
.	.	2c	2e
=63	=63	=63	=63
0r	2r	1f	2d
.	2F	.	1dd
.	2G	1e	.
.	2A	.	2cc
=64	=64	=64	=64
1BB-y	1B-y	1d	2dd
.	.	.	2d
1C	2A	2r	1e
.	[2G	2c	.
=65	=65	=65	=65
1D	2G]	2B-y	2d
.	2F	2A	1f
2r	1G	1B-y	.
2BB-y	.	.	4e
.	.	.	4d
=66	=66	=66	=66
2C	2r	2G	2e
2D	2F	1B-y	1d
1E-i	1G	.	.
.	.	4A	2c
.	.	4G	.
=67	=67	=67	=67
1D	2A	2F	1d
.	1F	1f	.
2r	.	.	1dd
2BB-y	[2G	2d	.
=68	=68	=68	=68
1C	2G]	1e	2.cc
.	1A	.	.
.	.	.	4b-y
1D	.	2f	4a
.	.	.	4g
.	[2B-y	[2d	4f
.	.	.	4e
=69	=69	=69	=69
1BB-y	4B-]	4d]	2d
.	4A	4c	.
.	1G	4d	2dd
.	.	4B-y	.
2C	.	2e-i	2cc
2D	2F	[2d	[2b-y
=70	=70	=70	=70
1E-i	1G	2d]	4b-]
.	.	.	4a
.	.	2c	1g
1D	1A	[1dl	.
.	.	.	2f#i
=71	=71	=71	=71
0GGl	0Gl	0d]	0gl
=72||	=72||	=72||	=72||
!!section: Secunda pars: Hic precursor
!!!OMD: Secunda pars: Hic precursor
0r	0r	0d	0r
=73	=73	=73	=73
0r	0r	1d	0r
.	.	1e	.
=74	=74	=74	=74
0r	0r	2c	0a
.	.	1d	.
.	.	2c	.
=75	=75	=75	=75
0r	0r	1d	1a
.	.	2G	1b-y
.	.	[2g	.
=76	=76	=76	=76
0r	0r	2g]	2g
.	.	2f	1a
.	.	2d	.
.	.	[2e	2g
=77	=77	=77	=77
0r	0A	4e]	2.cc
.	.	4c	.
.	.	2f	.
.	.	.	4b-y
.	.	2e	2a
.	.	[2d	4g
.	.	.	4f
=78	=78	=78	=78
0r	1A	2d]	2e
.	.	2c	2.f
.	1B-y	1d	.
.	.	.	4d
.	.	.	[2dd
=79	=79	=79	=79
0r	2G	1e	4dd]
.	.	.	4b-y
.	1A	.	2cc
.	.	2f	2a
.	2G	2g	[2dd
=80	=80	=80	=80
1r	1A	2e	2dd]
.	.	1f	2cc
[1D	2D	.	[1dd
.	[2d	4e	.
.	.	4d	.
=81	=81	=81	=81
1D]	2d]	2f	1dd]
.	4c	1g	.
.	4B-y	.	.
1D	2A	.	1r
.	[2B-y	2f	.
=82	=82	=82	=82
1E	4B-]	2g	0r
.	4G	.	.
.	1c	1G	.
2C	.	.	.
[2D	4B-y	2F	.
.	4A	.	.
=83	=83	=83	=83
2D]	2B-y	2G	1r
2C	2c	1g	.
1D	1A	.	1a
.	.	2f#i	.
=84	=84	=84	=84
1GG	2r	2.g	1.b-y
.	2d	.	.
.	.	4f	.
1r	[1e	1g	.
.	.	.	2g
=85	=85	=85	=85
0r	2e]	1c	2g
.	2c	.	2.cc
.	2c	1r	.
.	.	.	4b-y
.	[2f	.	4a
.	.	.	4g
=86	=86	=86	=86
1r	4f]	2r	1a
.	4e	.	.
.	4d	2A	.
.	4c	.	.
1D	1d	[1B-y	1f
=87	=87	=87	=87
1.E	2r	2B-]	0g
.	2B-y	2G	.
.	[1e-i	2G	.
2C	.	[2c	.
=88	=88	=88	=88
2C	2e-]	4c]	2.cc
.	.	4B-y	.
2.F	2c	4A	.
.	.	4G	4b-y
.	2c	1A	4a
4E	.	.	4g
4D	[2f	.	[2a
4C	.	.	.
=89	=89	=89	=89
1D	4f]	1F	2a]
.	4e	.	.
.	1d	.	1b-y
1E	.	1G	.
.	2c#i	.	4a
.	.	.	4g
=90	=90	=90	=90
2.D	1d	1A	1f
4E	.	.	.
2F	2A	2r	1r
[2G	2B-y	2d	.
=91	=91	=91	=91
2G]	2A	2e	1r
2F	1d	2d	.
1E	.	1g	2r
.	2c	.	2g
=92	=92	=92	=92
0r	1r	2f	2a
.	.	1e	2g
.	1A	.	1cc
.	.	4d	.
.	.	4c	.
=93	=93	=93	=93
1r	2B-y	2d	2b-y
.	2A	2e	2cc
1D	1d	1f	1a
=94	=94	=94	=94
2E	2c	2r	0r
2D	2d	1d	.
1G	1B-y	.	.
.	.	[2e	.
=95	=95	=95	=95
2F	2A	2e]	0r
2G	2.d	2d	.
1E	.	1g	.
.	4B-y	.	.
.	2c	.	.
=96	=96	=96	=96
2.D	1d	0f	0a
4E	.	.	.
1F	1c	.	.
=97	=97	=97	=97
2BB-y	1B-y	2r	1.dd
1B-y	.	2d	.
.	1r	1g	.
2G	.	.	2b-y
=98	=98	=98	=98
1A	0r	2e	1cc
.	.	1f	.
1B-y	.	.	1dd
.	.	[2g	.
=99	=99	=99	=99
2G	0r	2g]	2b-y
1A	.	2e	1cc
.	.	2f	.
2G	.	[2g	2b-y
=100	=100	=100	=100
1D	0A	2g]	2a
.	.	2f	1dd
1r	.	1e	.
.	.	.	[2cc
=101	=101	=101	=101
0r	1.d	1.f	2cc]
.	.	.	4b-y
.	.	.	4a
.	.	.	2b-y
.	2B-y	4e	[2g
.	.	4d	.
=102	=102	=102	=102
1r	1c	1e	2g]
.	.	.	1a
2r	1d	1f	.
[2D	.	.	4g
.	.	.	4f
=103	=103	=103	=103
2D]	2B-y	2d	2.g
2C	1c	2e	.
.	.	.	8fL
.	.	.	8gJ
2F	.	1d	2a
2G	2B-y	.	[2g
=104	=104	=104	=104
2D	1A	2r	2g]
2F	.	1d	2f
1E	1r	.	1g
.	.	2c	.
=105	=105	=105	=105
1D	2r	2.f	0r
.	1A	.	.
.	.	4e	.
1r	.	2f	.
.	2G	[2g	.
=106	=106	=106	=106
0r	2c	4g]	1r
.	.	4e	.
.	2.d	2f	.
.	.	1e	2r
.	4A	.	.
.	2c	.	[2a
=107	=107	=107	=107
1r	1B-y	1d	2a]
.	.	.	2g
2r	[1A	2e	2cc
[2D	.	[2f	2dd
=108	=108	=108	=108
2D]	1A]	2f]	2a
2C	.	2e	1cc
2F	1r	2a	.
2G	.	[2g	2b-y
=109	=109	=109	=109
2D	2r	2g]	1a
2F	1d	2f	.
1E	.	1g	2r
.	2c	.	[2g
=110	=110	=110	=110
1D	2B-y	2r	2g]
.	2A	1d	2f
2r	1r	.	2.e
[2A	.	2c	.
.	.	.	4c
=111	=111	=111	=111
2A]	2r	1B-y	2.d
2G	1d	.	.
.	.	.	4e
2F	.	2A	2f
2E	[2c	2G	2g
=112	=112	=112	=112
2.F	4c]	2A	1c
.	4B-y	.	.
.	4A	2c	.
4E	4G	.	.
2D	2F	2B-y	1r
2C	2E	[2A	.
=113	=113	=113	=113
1BB-y	1D	2A]	2r
.	.	2G	1d
1AA	1E	1A	.
.	.	.	2c
=114	=114	=114	=114
1C	2r	0r	1e
.	1G	.	.
2BB-y	.	.	2c
[2D	2F	.	[2f
=115	=115	=115	=115
2D]	1A	2r	2f]
2C	.	1c	2e
2.E-i	1G	.	1g
.	.	2B-y	.
4D	.	.	.
=116	=116	=116	=116
1BB-y	2.B-y	1d	2f
.	.	.	2b-y
.	4A	.	.
1r	2F	2c	2a
.	2G	2B-y	[2g
=117	=117	=117	=117
1r	2D	2A	2g]
.	1B-y	1d	2f
2r	.	.	2g
[2F	2A	[2c	[2a
=118	=118	=118	=118
2F]	1c	2c]	2a]
2E	.	2e	2.g
1G	1B-y	2d	.
.	.	.	4f
.	.	4c	4d
.	.	4B-y	4e
=119	=119	=119	=119
2F	2A	1c	2f
2E	2G	.	1g
2D	1A	1d	.
[2F	.	.	2f#i
=120	=120	=120	=120
2F]	2.G	1r	0g
2E	.	.	.
.	4A	.	.
[1G	1B-y	1d	.
=121	=121	=121	=121
2G]	0r	1.d	2r
2F	.	.	2a
2D	.	.	[1a
[2F	.	2c	.
=122	=122	=122	=122
2F]	0r	2d	2a]
2E	.	2e	2g
1D	.	[1f	2a
.	.	.	2b-y
=123	=123	=123	=123
0r	1A	2f]	1.cc
.	.	2e	.
.	2A	2f	.
.	2G	[2g	2b-y
=124	=124	=124	=124
0r	2A	2g]	1a
.	2B-y	1f	.
.	1c	.	2.g
.	.	2e	.
.	.	.	4a
=125	=125	=125	=125
1D	1r	1f	2b-y
.	.	.	2.a
[1D	[1A	2r	.
.	.	.	4g
.	.	2d	4f
.	.	.	4e
=126	=126	=126	=126
2D]	2A]	2f	2d
2C	2c	2e	1a
2D	2B-y	2f	.
2E	[2c	2e	2g
=127	=127	=127	=127
1F	2c]	1c	1a
.	2A	.	.
2r	2B-y	1d	1r
[2D	2A	.	.
=128	=128	=128	=128
2D]	1d	0r	1f
2F	.	.	.
2E	2.c	.	2g
[2F	.	.	[2a
.	4B-y	.	.
=129	=129	=129	=129
2F]	4c	0r	2a]
.	4A	.	.
2D	1d	.	2f
2.E	.	.	2.g
.	2c	.	.
4C	.	.	4a
=130	=130	=130	=130
1G	2.d	1B-y	1b-y
.	4e	.	.
1F	1f	1c	2a
.	.	.	[2f
=131	=131	=131	=131
1BB-y	1r	2d	2f]
.	.	2B-y	2g
1r	1F	2.c	1a
.	.	4d	.
=132	=132	=132	=132
0r	1G	2e	2g
.	.	1d	2f
.	1A	.	2e
.	.	2c	2e
=133	=133	=133	=133
0r	2r	1f	2d
.	2F	.	1dd
.	2G	1e	.
.	2A	.	2cc#i
=134	=134	=134	=134
1BB-y	1B-y	1d	2dd
.	.	.	2d
1C	2A	2r	1e
.	[2G	2c	.
=135	=135	=135	=135
1D	2G]	2B-y	2d
.	2F	2A	1f
2r	1G	1B-y	.
2BB-y	.	.	4e
.	.	.	4d
=136	=136	=136	=136
2C	2r	2G	2e
2D	2F	1B-y	1d
1E-i	1G	.	.
.	.	4A	2c
.	.	4G	.
=137	=137	=137	=137
1D	2A	2F	1d
.	1F	1f	.
2r	.	.	1dd
2BB-y	[2G	2d	.
=138	=138	=138	=138
1C	2G]	1e	2.cc
.	1A	.	.
.	.	.	4b-y
1D	.	[1f	4a
.	.	.	4g
.	[2B-y	.	4f
.	.	.	4e
=139	=139	=139	=139
1BB-y	4B-]	1f]	2d
.	4A	.	.
.	1G	.	2dd
2C	.	2r	2cc
2D	2F	[2B-y	[2b-y
=140	=140	=140	=140
1E-i	1G	2B-]	4b-]
.	.	.	4a
.	.	2c	1g
1D	1A	[1d	.
.	.	.	2f#i
=141	=141	=141	=141
2r	2G	1d]	[0gl
2GG	2B-y	.	.
1C	1c	1r	.
=142	=142	=142	=142
2GG	1d	1B-y	0g_
2G	.	.	.
2E	1r	1c	.
2C	.	.	.
=143	=143	=143	=143
2GG	2.B-y	1d	0g_
2.G	.	.	.
.	4c	.	.
.	2d	2B-y	.
4F	.	.	.
4E	[2e-i	[2c	.
4D	.	.	.
=144	=144	=144	=144
2C	2e-]	2c]	0g_
2BB-y	2d	2d	.
1C	1c	1e-i	.
=145	=145	=145	=145
0GGl	0B-yl	0dl	0g]
==	==	==	==
*-	*-	*-	*-
!!!system-decoration: s1,s2,s3,s4
!!!RDF**kern: i = editorial accidental
!!!RDF**kern: l = terminal long
!!!ENC: Janosch Umbreit
!!!END: 2025/12/12
!!!EED: Benjamin Ory
!!!EEV: 2026/02/11
!!!YEC: Copyright 2026 Benjamin Ory, All Rights Reserved
!!!ONB: Translated from MusicXML on 2026/02/11
